remix/Business/copyright-fill.svg

<svg viewBox="0 0 24 24" fill="currentColor" xmlns="http://www.w3.org/2000/svg"><path d="M12 2C17.52 2 22 6.48 22 12C22 17.52 17.52 22 12 22C6.48 22 2 17.52 2 12C2 6.48 6.48 2 12 2ZM12 7C9.24 7 7 9.24 7 12C7 14.76 9.24 17 12 17C13.8195 17 15.413 16.0265 16.2878 14.5723L14.5729 13.5442C14.0484 14.4166 13.0926 15 12 15C10.3425 15 9 13.6575 9 12C9 10.3425 10.3425 9 12 9C13.0931 9 14.0491 9.58383 14.5735 10.4568L16.2878 9.42771C15.413 7.9735 13.8195 7 12 7Z"/></svg>

<svg viewBox="0 0 24 24" xmlns="http://www.w3.org/2000/svg"><path fill="none" d="M0 0h24v24H0Z"/><path d="M12 2c5.52 0 10 4.48 10 10s-4.48 10-10 10C6.48 22 2 17.52 2 12 2 6.48 6.48 2 12 2Zm0 5c-2.76 0-5 2.24-5 5s2.24 5 5 5c1.82 0 3.41-.98 4.288-2.43l-1.72-1.03v-.001c-.86 1.42-2.7 1.88-4.12 1.02 -1.43-.86-1.89-2.7-1.03-4.12 .54-.91 1.51-1.46 2.57-1.46 1.093 0 2.05.58 2.574 1.45l1.71-1.03v-.001c-.91-1.51-2.54-2.43-4.29-2.43Z"/></svg>
